docs/public/images/nomic-foundation-logo.svg

<svg width="195" height="52" viewBox="0 0 195 52" fill="none" xmlns="http://www.w3.org/2000/svg">
<path fill-rule="evenodd" clip-rule="evenodd" d="M27.5277 24.2857H0.807856C0.51782 24.2857 0.336546 23.9717 0.481565 23.7205L13.4176 1.31457C13.6869 0.848282 14.1844 0.561036 14.7228 0.561036L40.5725 0.561035C40.8626 0.561035 41.0438 0.875009 40.8988 1.12619L27.5277 24.2857ZM37.0075 2.9974C37.0909 2.9492 37.0567 2.82165 36.9604 2.82165L15.5929 2.82165C15.3237 2.82165 15.0749 2.96527 14.9403 3.19841L4.24769 21.7186C4.19949 21.8021 4.29292 21.8955 4.37637 21.8473L37.0075 2.9974Z" fill="#121212"/>
<path fill-rule="evenodd" clip-rule="evenodd" d="M30.1388 25.7914L43.5204 2.61384C43.6654 2.36266 44.0279 2.36266 44.1729 2.61384L57.1202 25.0392C57.3894 25.5055 57.3894 26.08 57.1202 26.5463L44.1737 48.9703C44.0287 49.2214 43.6661 49.2214 43.5211 48.9703L30.1388 25.7914ZM43.8473 44.6628C43.8473 44.7592 43.9749 44.7934 44.0231 44.7099L54.7274 26.1695C54.862 25.9363 54.862 25.6491 54.7274 25.416L44.0225 6.87448C43.9743 6.79102 43.8467 6.82521 43.8467 6.92158L43.8473 44.6628Z" fill="#121212"/>
<path d="M40.5741 51.0244C40.8641 51.0244 41.0454 50.7104 40.9004 50.4593L27.5293 27.2998H0.807885C0.517849 27.2998 0.336576 27.6138 0.481595 27.865L13.4176 50.2709C13.6869 50.7372 14.1844 51.0244 14.7228 51.0244H40.5741Z" fill="#121212"/>
<path d="M70.3506 43.6123V29.5603H79.7597V31.6491H72.8856V43.6123H70.3506ZM72.0026 37.7161V35.6273H78.8008V37.7161H72.0026Z" fill="#121212"/>
<path d="M87.2831 43.7927C86.0109 43.7927 84.9 43.5363 83.9505 43.0236C83.0011 42.5109 82.2605 41.7229 81.7288 40.6595C81.2034 39.5961 80.9408 38.2383 80.9408 36.5863C80.9408 34.9342 81.2034 33.5765 81.7288 32.5131C82.2605 31.4497 83.0011 30.6617 83.9505 30.1489C84.9 29.6362 86.0109 29.3799 87.2831 29.3799C88.5618 29.3799 89.6758 29.6362 90.6252 30.1489C91.5747 30.6617 92.3121 31.4529 92.8375 32.5226C93.3628 33.586 93.6255 34.9406 93.6255 36.5863C93.6255 38.232 93.3628 39.5897 92.8375 40.6595C92.3121 41.7229 91.5715 42.5109 90.6157 43.0236C89.6663 43.5363 88.5554 43.7927 87.2831 43.7927ZM87.2831 41.7134C88.0554 41.7134 88.72 41.5456 89.277 41.2101C89.834 40.8747 90.2613 40.3366 90.5588 39.5961C90.8626 38.8492 91.0145 37.8649 91.0145 36.6432C91.0145 35.3836 90.8626 34.374 90.5588 33.6145C90.255 32.8549 89.8245 32.3074 89.2675 31.9719C88.7105 31.6301 88.049 31.4592 87.2831 31.4592C86.5236 31.4592 85.8621 31.6269 85.2988 31.9624C84.7418 32.2916 84.3113 32.8296 84.0075 33.5765C83.7037 34.3171 83.5518 35.3013 83.5518 36.5293C83.5518 37.7953 83.7037 38.808 84.0075 39.5676C84.3113 40.3271 84.7418 40.8747 85.2988 41.2101C85.8558 41.5456 86.5172 41.7134 87.2831 41.7134Z" fill="#121212"/>
<path d="M101.691 43.7927C100.381 43.7927 99.3083 43.5838 98.4728 43.166C97.6373 42.7419 97.017 42.0995 96.6119 41.2386C96.2131 40.3778 96.0137 39.2891 96.0137 37.9725V29.5603H98.5583V38.2193C98.5583 39.4347 98.8146 40.3177 99.3273 40.8683C99.84 41.4127 100.628 41.6849 101.691 41.6849C102.755 41.6849 103.54 41.4127 104.046 40.8683C104.559 40.3177 104.815 39.4347 104.815 38.2193V29.5603H107.312V37.9725C107.312 39.2891 107.113 40.3778 106.714 41.2386C106.315 42.0995 105.701 42.7419 104.872 43.166C104.043 43.5838 102.983 43.7927 101.691 43.7927Z" fill="#121212"/>
<path d="M110.197 43.6123V29.5603H112.76L119.91 40.517H119.435V29.5603H121.828V43.6123H119.264L112.115 32.6555H112.589V43.6123H110.197Z" fill="#121212"/>
<path d="M128.46 43.7452C128.081 43.7452 127.688 43.7357 127.283 43.7167C126.884 43.7041 126.476 43.6819 126.058 43.6503C125.64 43.6186 125.219 43.5775 124.795 43.5268V29.8451C125.207 29.7565 125.647 29.6805 126.115 29.6172C126.59 29.5476 127.068 29.497 127.549 29.4653C128.036 29.4274 128.511 29.4084 128.973 29.4084C131.442 29.4084 133.303 29.9939 134.556 31.1649C135.815 32.3295 136.445 34.1367 136.445 36.5863C136.445 38.2573 136.151 39.6214 135.562 40.6784C134.974 41.7292 134.087 42.5046 132.904 43.0046C131.72 43.4983 130.239 43.7452 128.46 43.7452ZM129.087 41.6564C130.144 41.6564 131.024 41.4886 131.726 41.1532C132.435 40.8114 132.964 40.267 133.312 39.5201C133.66 38.7732 133.834 37.7921 133.834 36.5768C133.834 35.3678 133.66 34.3899 133.312 33.643C132.964 32.896 132.439 32.3517 131.736 32.0099C131.04 31.6618 130.172 31.4877 129.134 31.4877C128.856 31.4877 128.558 31.5035 128.242 31.5352C127.932 31.5605 127.628 31.5985 127.33 31.6491V41.5709C127.615 41.6026 127.897 41.6247 128.175 41.6374C128.46 41.6501 128.764 41.6564 129.087 41.6564Z" fill="#121212"/>
<path d="M137.391 43.6123L142.11 29.5603H145.784L150.503 43.6123H147.987L143.781 30.6901H144.075L139.878 43.6123H137.391ZM140.372 39.5771L140.923 37.5357H144.599L145.259 39.5771H140.372Z" fill="#121212"/>
<path d="M153.948 43.6123V31.6966H149.429V29.5603H161.012V31.6966H156.493V43.6123H153.948Z" fill="#121212"/>
<path d="M162.713 43.6123V29.5603H165.248V43.6123H162.713Z" fill="#121212"/>
<path d="M174.027 43.7927C172.754 43.7927 171.643 43.5363 170.694 43.0236C169.745 42.5109 169.004 41.7229 168.472 40.6595C167.947 39.5961 167.684 38.2383 167.684 36.5863C167.684 34.9342 167.947 33.5765 168.472 32.5131C169.004 31.4497 169.745 30.6617 170.694 30.1489C171.643 29.6362 172.754 29.3799 174.027 29.3799C175.305 29.3799 176.419 29.6362 177.369 30.1489C178.318 30.6617 179.056 31.4529 179.581 32.5226C180.106 33.586 180.369 34.9406 180.369 36.5863C180.369 38.232 180.106 39.5897 179.581 40.6595C179.056 41.7229 178.315 42.5109 177.359 43.0236C176.41 43.5363 175.299 43.7927 174.027 43.7927ZM174.027 41.7134C174.799 41.7134 175.463 41.5456 176.02 41.2101C176.577 40.8747 177.005 40.3366 177.302 39.5961C177.606 38.8492 177.758 37.8649 177.758 36.6432C177.758 35.3836 177.606 34.374 177.302 33.6145C176.998 32.8549 176.568 32.3074 176.011 31.9719C175.454 31.6301 174.792 31.4592 174.027 31.4592C173.267 31.4592 172.606 31.6269 172.042 31.9624C171.485 32.2916 171.055 32.8296 170.751 33.5765C170.447 34.3171 170.295 35.3013 170.295 36.5293C170.295 37.7953 170.447 38.808 170.751 39.5676C171.055 40.3271 171.485 40.8747 172.042 41.2101C172.599 41.5456 173.261 41.7134 174.027 41.7134Z" fill="#121212"/>
<path d="M182.824 43.6123V29.5603H185.387L192.537 40.517H192.062V29.5603H194.454V43.6123H191.891L184.742 32.6555H185.216V43.6123H182.824Z" fill="#121212"/>
<path d="M70.3545 22.0249V7.97288H72.918L80.0675 18.9296H79.5927V7.97288H81.9854V22.0249H79.4218L72.2724 11.0681H72.7471V22.0249H70.3545Z" fill="#121212"/>
<path d="M90.7733 22.2053C89.5011 22.2053 88.3902 21.9489 87.4407 21.4362C86.4913 20.9235 85.7507 20.1354 85.219 19.0721C84.6936 18.0087 84.431 16.6509 84.431 14.9989C84.431 13.3468 84.6936 11.9891 85.219 10.9257C85.7507 9.8623 86.4913 9.07425 87.4407 8.56154C88.3902 8.04883 89.5011 7.79248 90.7733 7.79248C92.052 7.79248 93.166 8.04883 94.1154 8.56154C95.0649 9.07425 95.8023 9.86547 96.3277 10.9352C96.853 11.9986 97.1157 13.3531 97.1157 14.9989C97.1157 16.6446 96.853 18.0023 96.3277 19.0721C95.8023 20.1354 95.0617 20.9235 94.1059 21.4362C93.1565 21.9489 92.0456 22.2053 90.7733 22.2053ZM90.7733 20.126C91.5456 20.126 92.2102 19.9582 92.7672 19.6227C93.3242 19.2873 93.7515 18.7492 94.049 18.0087C94.3528 17.2618 94.5047 16.2775 94.5047 15.0558C94.5047 13.7962 94.3528 12.7866 94.049 12.0271C93.7452 11.2675 93.3147 10.72 92.7577 10.3845C92.2007 10.0427 91.5392 9.8718 90.7733 9.8718C90.0138 9.8718 89.3523 10.0395 88.789 10.375C88.232 10.7042 87.8015 11.2422 87.4977 11.9891C87.1939 12.7297 87.042 13.7139 87.042 14.9419C87.042 16.2079 87.1939 17.2206 87.4977 17.9802C87.8015 18.7397 88.232 19.2873 88.789 19.6227C89.346 19.9582 90.0074 20.126 90.7733 20.126Z" fill="#121212"/>
<path d="M99.6084 22.0249V7.97288H102.685L107.119 17.8378H106.767L111.116 7.97288H114.192V22.0249H111.818V10.1946H112.369L107.964 20.0215H105.837L101.327 10.1946H101.982V22.0249H99.6084Z" fill="#121212"/>
<path d="M117.192 22.0249V7.97288H119.727V22.0249H117.192Z" fill="#121212"/>
<path d="M129.151 22.2053C128.056 22.2053 127.075 22.0723 126.208 21.8065C125.347 21.5343 124.616 21.1134 124.014 20.5437C123.413 19.9677 122.954 19.224 122.638 18.3125C122.321 17.401 122.163 16.306 122.163 15.0274C122.163 13.388 122.442 12.0334 122.999 10.9637C123.562 9.89395 124.375 9.09957 125.439 8.58053C126.502 8.05516 127.79 7.79248 129.303 7.79248C129.841 7.79248 130.36 7.82413 130.86 7.88743C131.36 7.94439 131.851 8.03301 132.332 8.15327V10.2706C131.87 10.1503 131.401 10.0617 130.927 10.0047C130.458 9.94775 129.977 9.91927 129.483 9.91927C128.452 9.91927 127.591 10.087 126.901 10.4225C126.211 10.758 125.692 11.2991 125.344 12.0461C125.002 12.7866 124.831 13.7677 124.831 14.9894C124.831 16.249 125.005 17.2523 125.353 17.9992C125.701 18.7397 126.211 19.2714 126.882 19.5943C127.559 19.9171 128.392 20.0785 129.379 20.0785C129.873 20.0785 130.36 20.0405 130.841 19.9645C131.322 19.8886 131.819 19.7715 132.332 19.6132V21.7305C131.876 21.8761 131.376 21.9901 130.832 22.0723C130.287 22.161 129.727 22.2053 129.151 22.2053Z" fill="#121212"/>
</svg>

<svg width="195" height="52" fill="none" xmlns="http://www.w3.org/2000/svg"><path fill-rule="evenodd" clip-rule="evenodd" d="M27.528 24.286H.808a.377.377 0 0 1-.326-.566L13.418 1.316c.269-.467.766-.754 1.305-.754h25.85c.29 0 .47.314.326.565l-13.371 23.16Zm9.48-21.289c.083-.048.049-.175-.048-.175H15.593a.754.754 0 0 0-.653.376L4.248 21.718c-.049.084.045.177.128.13l32.631-18.85ZM30.139 25.791 43.52 2.614a.377.377 0 0 1 .653 0L57.12 25.039c.27.466.27 1.041 0 1.507L44.174 48.97a.377.377 0 0 1-.653 0L30.14 25.791Zm13.708 18.872c0 .096.128.13.176.047l10.704-18.54a.753.753 0 0 0 0-.754L44.023 6.874c-.049-.083-.176-.049-.176.048v37.74Z" fill="#121212"/><path d="M40.574 51.024c.29 0 .471-.314.326-.565L27.53 27.3H.807a.377.377 0 0 0-.326.566l12.936 22.406c.269.466.766.753 1.305.753h25.851ZM70.35 43.612V29.56h9.41v2.09h-6.874v11.962H70.35Zm1.653-5.896v-2.089H78.8v2.09h-6.798ZM87.283 43.793c-1.272 0-2.383-.257-3.332-.77-.95-.512-1.69-1.3-2.222-2.364-.526-1.063-.788-2.42-.788-4.073 0-1.652.262-3.01.788-4.073.531-1.063 1.272-1.851 2.222-2.364.949-.513 2.06-.77 3.332-.77 1.279 0 2.393.257 3.342.77.95.513 1.687 1.304 2.213 2.374.525 1.063.788 2.418.788 4.063 0 1.646-.263 3.004-.788 4.074-.526 1.063-1.266 1.85-2.222 2.364-.95.512-2.06.769-3.333.769Zm0-2.08c.772 0 1.437-.167 1.994-.503.557-.335.984-.873 1.282-1.614.304-.747.456-1.731.456-2.953 0-1.26-.152-2.269-.456-3.029-.304-.76-.734-1.307-1.291-1.642-.558-.342-1.219-.513-1.985-.513-.76 0-1.42.168-1.984.503-.557.33-.988.868-1.292 1.615-.303.74-.455 1.724-.455 2.952 0 1.266.152 2.279.455 3.039.304.76.735 1.307 1.292 1.642.557.336 1.218.503 1.984.503ZM101.691 43.793c-1.31 0-2.383-.21-3.218-.627a4.018 4.018 0 0 1-1.861-1.927c-.399-.861-.598-1.95-.598-3.267V29.56h2.544v8.66c0 1.215.257 2.098.77 2.648.512.545 1.3.817 2.363.817 1.064 0 1.849-.272 2.355-.817.513-.55.769-1.433.769-2.649V29.56h2.497v8.412c0 1.317-.199 2.406-.598 3.267a3.982 3.982 0 0 1-1.842 1.927c-.829.418-1.889.627-3.181.627ZM110.197 43.612V29.56h2.563l7.15 10.957h-.475V29.56h2.393v14.052h-2.564l-7.149-10.956h.474v10.956h-2.392ZM128.46 43.745c-.379 0-.772-.01-1.177-.028a27.958 27.958 0 0 1-2.488-.19V29.845a17.35 17.35 0 0 1 1.32-.228c.475-.07.953-.12 1.434-.152.487-.038.962-.057 1.424-.057 2.469 0 4.33.586 5.583 1.757 1.259 1.165 1.889 2.972 1.889 5.421 0 1.671-.294 3.035-.883 4.092-.588 1.051-1.475 1.827-2.658 2.327-1.184.493-2.665.74-4.444.74Zm.627-2.089c1.057 0 1.937-.167 2.639-.503.709-.342 1.238-.886 1.586-1.633.348-.747.522-1.728.522-2.943 0-1.21-.174-2.187-.522-2.934-.348-.747-.873-1.291-1.576-1.633-.696-.348-1.564-.522-2.602-.522a8.97 8.97 0 0 0-.892.047c-.31.026-.614.064-.912.114v9.922c.285.032.567.054.845.066.285.013.589.02.912.02ZM137.391 43.612l4.719-14.052h3.674l4.719 14.052h-2.516l-4.206-12.922h.294l-4.197 12.922h-2.487Zm2.981-4.035.551-2.041h3.676l.66 2.041h-4.887ZM153.948 43.612V31.697h-4.519V29.56h11.583v2.137h-4.519v11.915h-2.545ZM162.713 43.612V29.56h2.535v14.052h-2.535ZM174.027 43.793c-1.273 0-2.384-.257-3.333-.77-.949-.512-1.69-1.3-2.222-2.364-.525-1.063-.788-2.42-.788-4.073 0-1.652.263-3.01.788-4.073.532-1.063 1.273-1.851 2.222-2.364.949-.513 2.06-.77 3.333-.77 1.278 0 2.392.257 3.342.77.949.513 1.687 1.304 2.212 2.374.525 1.063.788 2.418.788 4.063 0 1.646-.263 3.004-.788 4.074-.525 1.063-1.266 1.85-2.222 2.364-.949.512-2.06.769-3.332.769Zm0-2.08c.772 0 1.436-.167 1.993-.503.557-.335.985-.873 1.282-1.614.304-.747.456-1.731.456-2.953 0-1.26-.152-2.269-.456-3.029-.304-.76-.734-1.307-1.291-1.642-.557-.342-1.219-.513-1.984-.513-.76 0-1.421.168-1.985.503-.557.33-.987.868-1.291 1.615-.304.74-.456 1.724-.456 2.952 0 1.266.152 2.279.456 3.039.304.76.734 1.307 1.291 1.642.557.336 1.219.503 1.985.503ZM182.824 43.612V29.56h2.563l7.15 10.957h-.475V29.56h2.392v14.052h-2.563l-7.149-10.956h.474v10.956h-2.392ZM70.355 22.025V7.973h2.563l7.15 10.957h-.475V7.973h2.392v14.052h-2.563l-7.15-10.957h.475v10.957h-2.392ZM90.773 22.205c-1.272 0-2.383-.256-3.332-.769-.95-.512-1.69-1.3-2.222-2.364-.525-1.063-.788-2.421-.788-4.073 0-1.652.263-3.01.788-4.073.532-1.064 1.272-1.852 2.222-2.364.95-.513 2.06-.77 3.332-.77 1.279 0 2.393.257 3.342.77.95.512 1.687 1.303 2.213 2.373.525 1.064.788 2.418.788 4.064s-.263 3.003-.788 4.073c-.526 1.063-1.266 1.852-2.222 2.364-.95.513-2.06.77-3.333.77Zm0-2.079c.773 0 1.437-.168 1.994-.503.557-.336.984-.874 1.282-1.614.304-.747.456-1.732.456-2.953 0-1.26-.152-2.27-.456-3.029-.304-.76-.734-1.307-1.291-1.643-.557-.341-1.219-.512-1.985-.512-.76 0-1.42.168-1.984.503-.557.33-.987.867-1.291 1.614-.304.74-.456 1.725-.456 2.953 0 1.266.152 2.279.456 3.038.303.76.734 1.307 1.291 1.643.557.335 1.218.503 1.984.503ZM99.608 22.025V7.973h3.077l4.434 9.865h-.352l4.349-9.865h3.076v14.052h-2.374v-11.83h.551l-4.405 9.826h-2.127l-4.51-9.826h.655v11.83h-2.374ZM117.192 22.025V7.973h2.535v14.052h-2.535ZM129.151 22.205c-1.095 0-2.076-.133-2.943-.398-.861-.273-1.592-.694-2.194-1.263-.601-.576-1.06-1.32-1.376-2.232-.317-.911-.475-2.006-.475-3.285 0-1.639.279-2.994.836-4.063.563-1.07 1.376-1.864 2.44-2.383 1.063-.526 2.351-.789 3.864-.789.538 0 1.057.032 1.557.095.5.057.991.146 1.472.266v2.118c-.462-.12-.931-.21-1.405-.266-.469-.057-.95-.086-1.444-.086-1.031 0-1.892.168-2.582.503-.69.336-1.209.877-1.557 1.624-.342.74-.513 1.722-.513 2.943 0 1.26.174 2.263.522 3.01.348.74.858 1.272 1.529 1.595.677.323 1.51.484 2.497.484a9.35 9.35 0 0 0 1.462-.113c.481-.076.978-.194 1.491-.352v2.117a9.7 9.7 0 0 1-1.5.342c-.545.089-1.105.133-1.681.133Z" fill="#121212"/></svg>
